X:1
T:Title
%%score { ( 1 3 ) | ( 2 4 ) }
L:1/8
M:4/4
K:G
V:1 treble nm="Grand Piano"
V:3 treble 
V:2 bass 
V:4 bass 
V:1
 z4 z2[Q:1/4=100] D>D | G2 G2 G2 G>A | B>A G>A B2 d2 | [Fd]>[FA] [FA]>[GB] [Ac]2 F2 | %4
 A>G G>E D2 D>D | G2 G2 G2 G>A | B>A G>A B2 d2 | z4 d2 z2 |[M:3/4] B>c [GB]>[FA] G2 |[M:1/4] B>c | %10
[M:4/4] d6 z2 | B6 z2 |[M:3/4] G>G G>G G2 |[M:1/4] G>G |[M:4/4] A6 z2 | d6 z2 | B6 z2 | %17
 [FA]>[FA] [FA]>[GB] [Ac]2 [GB]>[CDA] |[M:3/4] [G,G]2- [G,-EG-]>[G,-EG-] [G,DG]2 |] %19
V:2
 z4 z2 [G,B,]>[G,B,] | [G,B,D]2 [G,B,D]2 [G,B,D]2[K:treble] [G,B,D]>[G,CD] | %2
 [G,DG]>[G,CD] [G,B,D]>[G,CD] [G,DG]2 [G,B,G]2 | [D,A,]>[D,D] [D,D]>[D,D] [D,D]2 [D,A,D]2 | %4
 [G,CD]>[G,B,D] [G,B,D]>[G,C] [G,B,]2 [G,B,]>[G,B,] | [G,B,D]2 [G,B,D]2 [G,B,D]2 [G,B,D]>[G,CD] | %6
 [G,DG]>[G,CD] [G,B,E]>[G,CD] [G,DG]2 [G,B,G]2 | %7
 [C,C]>[D,C] [E,C]>[F,C][K:treble] [G,B,G]>[A,C] [B,D]>[CEG] | %8
[M:3/4] [DG]>[DA][K:bass] [D,D]>[D,C] [G,B,]2 |[M:1/4] z2 |[M:4/4] z4[K:treble] [G,D]2 z2 | %11
 [G,DG]2 [G,D]>[G,D] [G,D]2 [G,DG]>[K:bass][G,CD] | %12
[M:3/4] [G,B,D]>[G,B,D] [G,B,D]>[G,B,D] [G,B,E]2 |[M:1/4] [E,B,E]>[E,^C] | %14
[M:4/4] [D,D]2 [D,D]>[D,D] [D,D]2 G,,2 | z4[K:treble] [G,D]2 z2 | %16
 [G,DG]2 [G,D]>[G,D] [G,D]2 [G,DG]>[G,DG] | [D,D]>[D,D] [D,D]>[D,D] [D,D]2 [D,D]>D, | %18
[M:3/4] z2 C>C B,2 |] %19
V:3
 x8 | x8 | x8 | x8 | x8 | x8 | x8 | [Ge]>[Ge] [Ge]>[Ge] z z/ F/ G>A |[M:3/4] x6 |[M:1/4] x2 | %10
[M:4/4] z2 G>A B>e [DBd]>[DAc] | z2 G>G G2 B>A |[M:3/4] x6 |[M:1/4] x2 |[M:4/4] F2 F>F F2 B>c | %15
 z2 G>A B>e [DBd]>[DAc] | z2 G>G G2 B>B | x8 |[M:3/4] [B,D]2 z2 z2 |] %19
V:4
 x8 | x6[K:treble] x2 | x8 | x8 | x8 | x8 | x8 | x4[K:treble] x4 |[M:3/4] x2[K:bass] x4 | %9
[M:1/4] G,2- |[M:4/4] G,2 [G,B,]>[K:treble][G,C] z z/ c/ G,>G, | x15/2[K:bass] x/ |[M:3/4] x6 | %13
[M:1/4] x2 |[M:4/4] x8 | G,,2 [G,B,]>[K:treble][G,C] z z/ c/ G,>G, | x8 | x8 |[M:3/4] G,,6 |] %19

